other/containerinstances-mono.svg

<?xml version="1.0" encoding="UTF-8" standalone="no"?>
<svg
   xmlns:dc="http://purl.org/dc/elements/1.1/"
   xmlns:cc="http://creativecommons.org/ns#"
   xmlns:rdf="http://www.w3.org/1999/02/22-rdf-syntax-ns#"
   xmlns:svg="http://www.w3.org/2000/svg"
   xmlns="http://www.w3.org/2000/svg"
   xmlns:sodipodi="http://sodipodi.sourceforge.net/DTD/sodipodi-0.dtd"
   xmlns:inkscape="http://www.inkscape.org/namespaces/inkscape"
   id="Layer_1"
   data-name="Layer 1"
   viewBox="0 0 49.8 49.9"
   version="1.1"
   sodipodi:docname="containerinstances-mono.svg"
   inkscape:version="0.92.1 r15371">
  <metadata
     id="metadata4534">
    <rdf:RDF>
      <cc:Work
         rdf:about="">
        <dc:format>image/svg+xml</dc:format>
        <dc:type
           rdf:resource="http://purl.org/dc/dcmitype/StillImage" />
        <dc:title>ContainerInstances_rgb_UI</dc:title>
      </cc:Work>
    </rdf:RDF>
  </metadata>
  <defs
     id="defs4532" />
  <sodipodi:namedview
     pagecolor="#ffffff"
     bordercolor="#666666"
     borderopacity="1"
     objecttolerance="10"
     gridtolerance="10"
     guidetolerance="10"
     inkscape:pageopacity="0"
     inkscape:pageshadow="2"
     inkscape:window-width="1507"
     inkscape:window-height="845"
     id="namedview4530"
     showgrid="true"
     inkscape:pagecheckerboard="true"
     inkscape:zoom="9.4589175"
     inkscape:cx="23.79248"
     inkscape:cy="27.357934"
     inkscape:window-x="1059"
     inkscape:window-y="226"
     inkscape:window-maximized="0"
     inkscape:current-layer="Layer_1" />
  <title
     id="title4509">ContainerInstances_rgb_UI</title>
  <path
     d="M 30.080078 -0.0078125 A 11.929 11.929 0 0 0 20.199219 4.9609375 A 9.444 9.444 0 0 0 5.2675781 14.761719 A 8.969 8.969 0 0 0 8.9648438 31.900391 L 11.900391 31.900391 L 11.900391 22.900391 A 1 1 0 0 1 12.900391 21.900391 L 22.900391 21.900391 L 22.900391 14.900391 L 19.900391 14.900391 L 24.900391 7.9003906 L 29.900391 14.900391 L 26.900391 14.900391 L 26.900391 21.900391 L 36.900391 21.900391 A 1 1 0 0 1 37.900391 22.900391 L 37.900391 31.900391 L 39.341797 31.900391 A 10.463 10.463 0 0 0 41.800781 11.267578 A 11.929 11.929 0 0 0 30.080078 -0.0078125 z M 37.900391 31.900391 L 34.900391 31.900391 L 34.900391 46.900391 L 14.900391 46.900391 L 14.900391 31.900391 L 11.900391 31.900391 L 11.900391 48.900391 A 1 1 0 0 0 12.900391 49.900391 L 36.900391 49.900391 A 1 1 0 0 0 37.900391 48.900391 L 37.900391 31.900391 z M 14.900391 31.900391 L 16.900391 31.900391 L 16.900391 26.900391 L 20.900391 26.900391 L 20.900391 31.900391 L 22.900391 31.900391 L 22.900391 26.900391 L 26.900391 26.900391 L 26.900391 31.900391 L 28.900391 31.900391 L 28.900391 26.900391 L 32.900391 26.900391 L 32.900391 31.900391 L 34.900391 31.900391 L 34.900391 24.900391 L 32.900391 24.900391 L 14.900391 24.900391 L 14.900391 31.900391 z M 32.900391 31.900391 L 28.900391 31.900391 L 28.900391 44.900391 L 32.900391 44.900391 L 32.900391 31.900391 z M 26.900391 31.900391 L 22.900391 31.900391 L 22.900391 44.900391 L 26.900391 44.900391 L 26.900391 31.900391 z M 20.900391 31.900391 L 16.900391 31.900391 L 16.900391 44.900391 L 20.900391 44.900391 L 20.900391 31.900391 z "
     id="path4511" />
  <path
     d="M26.95,16"
     transform="translate(-0.1 -0.1)"
     fill="none"
     id="path4517" />
  <path
     d="M34.95,20"
     transform="translate(-0.1 -0.1)"
     fill="none"
     id="path4519" />
  <path
     d="M26.95,16"
     transform="translate(-0.1 -0.1)"
     fill="#814a98"
     id="path4523" />
</svg>

<svg xmlns="http://www.w3.org/2000/svg" data-name="Layer 1" viewBox="0 0 49.8 49.9"><path d="M30.08-.008a11.929 11.929 0 0 0-9.88 4.969 9.444 9.444 0 0 0-14.932 9.8 8.969 8.969 0 0 0 3.697 17.14H11.9v-9a1 1 0 0 1 1-1h10v-7h-3l5-7 5 7h-3v7h10a1 1 0 0 1 1 1v9h1.442A10.463 10.463 0 0 0 41.8 11.267 11.929 11.929 0 0 0 30.08-.008zM37.9 31.9h-3v15h-20v-15h-3v17a1 1 0 0 0 1 1h24a1 1 0 0 0 1-1v-17zm-23 0h2v-5h4v5h2v-5h4v5h2v-5h4v5h2v-7h-20v7zm18 0h-4v13h4v-13zm-6 0h-4v13h4v-13zm-6 0h-4v13h4v-13z"/></svg>
